src/biouml/plugins/sbol/resources/complex-sbgn.svg

<?xml version="1.0" encoding="UTF-8" standalone="no"?>
<svg
   xmlns:dc="http://purl.org/dc/elements/1.1/"
   xmlns:cc="http://creativecommons.org/ns#"
   xmlns:rdf="http://www.w3.org/1999/02/22-rdf-syntax-ns#"
   xmlns:svg="http://www.w3.org/2000/svg"
   xmlns="http://www.w3.org/2000/svg"
   xmlns:sodipodi="http://sodipodi.sourceforge.net/DTD/sodipodi-0.dtd"
   xmlns:inkscape="http://www.inkscape.org/namespaces/inkscape"
   viewBox="0 0 44.999998 44.999998"
   version="1.1"
   xml:space="preserve"
   x="0px"
   y="0px"
   width="0.5in"
   height="0.5in"
   id="svg2"
   inkscape:version="0.91 r13725"
   sodipodi:docname="complex-sbgn.svg"
   inkscape:export-filename="corneredrect-specification.png"
   inkscape:export-xdpi="300"
   inkscape:export-ydpi="300"><metadata
     id="metadata12"><rdf:RDF><cc:Work
         rdf:about=""><dc:format>image/svg+xml</dc:format><dc:type
           rdf:resource="http://purl.org/dc/dcmitype/StillImage" /><dc:title></dc:title></cc:Work></rdf:RDF></metadata><sodipodi:namedview
     pagecolor="#ffffff"
     bordercolor="#666666"
     borderopacity="1"
     objecttolerance="10"
     gridtolerance="10"
     guidetolerance="10"
     inkscape:pageopacity="0"
     inkscape:pageshadow="2"
     inkscape:window-width="944"
     inkscape:window-height="738"
     id="namedview10"
     showgrid="false"
     units="in"
     inkscape:zoom="13.350176"
     inkscape:cx="22.603028"
     inkscape:cy="27.618455"
     inkscape:window-x="0"
     inkscape:window-y="0"
     inkscape:window-maximized="0"
     inkscape:current-layer="svg2" /><defs
     id="defs4"><style
       type="text/css"
       id="style6"><![CDATA[
      path,circle,polygon {
        stroke:#000000;
        stroke-width: 3;
        stroke-linecap: round;
        stroke-linejoin: round;
        fill: none
      }]]></style></defs><path
     style="opacity:1;fill:none;fill-opacity:1;stroke:#000000;stroke-width:0.99999988;stroke-linecap:butt;stroke-linejoin:miter;stroke-miterlimit:4;stroke-dasharray:none;stroke-dashoffset:0;stroke-opacity:1"
     d="M 10.134766 15.570312 L 6.6191406 19.085938 L 6.6191406 25.914062 L 10.134766 29.429688 L 34.865234 29.429688 L 38.380859 25.914062 L 38.380859 19.085938 L 34.865234 15.570312 L 10.134766 15.570312 z "
     id="rect4135" /></svg>

<svg xmlns="http://www.w3.org/2000/svg" version="1.1" xml:space="preserve" x="0" y="0" id="svg2" viewBox="6.12 15.07 32.76 14.86">
    <defs id="defs4">
        <style type="text/css" id="style6">
            
        </style>
    </defs>
    <path style="opacity:1;fill:none;fill-opacity:1;stroke:#000;stroke-width:.99999988;stroke-linecap:butt;stroke-linejoin:miter;stroke-miterlimit:4;stroke-dasharray:none;stroke-dashoffset:0;stroke-opacity:1" d="m10.135 15.57-3.516 3.516v6.828l3.516 3.516h24.73l3.516-3.516v-6.828l-3.516-3.516h-24.73z" id="rect4135"/>
</svg>
